packages/core/src/svgs/tokens/mono/SHRAP.svg

<svg width="24" height="24" viewBox="0 0 24 24" fill="none" xmlns="http://www.w3.org/2000/svg">
<path d="M22 17.9609C21.2541 17.4042 20.5189 16.8312 19.7891 16.2528C19.254 15.8257 18.7729 15.4582 18.3459 15.15C16.6502 13.9145 14.9456 12.691 13.2325 11.4798C13.1081 11.3934 13.0162 11.2527 12.9622 11.0636C12.9568 11.0366 12.9622 11.0311 12.9892 11.0474L14.2811 11.9177C14.3081 11.9392 14.3298 11.9284 14.3351 11.8906C14.3464 11.8213 14.3399 11.7502 14.3163 11.6841C14.2926 11.6179 14.2526 11.5587 14.2 11.5122C13.9297 11.2582 13.6703 11.0257 13.4217 10.8095C13.3946 10.788 13.3946 10.7663 13.4217 10.7393L13.9675 10.1987C13.9819 10.1863 13.9926 10.1701 13.9983 10.1519C14.004 10.1339 14.0046 10.1145 14 10.096L13.973 9.96626C13.9675 9.91227 13.9838 9.90143 14.0271 9.91227L15.4432 10.4257C15.4919 10.442 15.5352 10.4312 15.5676 10.3879L15.7081 10.2257C15.7213 10.2114 15.7299 10.1934 15.7328 10.1742C15.7357 10.1549 15.7328 10.1353 15.7243 10.1176C15.4346 9.48256 15.0126 8.91681 14.4864 8.45819C14.4625 8.43956 14.4449 8.41395 14.4362 8.38487C14.4275 8.35582 14.428 8.32475 14.4379 8.29602L14.9135 6.71764C14.9182 6.70263 14.9185 6.68664 14.9147 6.6714C14.9108 6.65617 14.903 6.64226 14.8919 6.63116C14.0387 5.7258 12.9302 5.10173 11.7135 4.84197C10.4963 4.57447 9.22583 4.69546 8.08108 5.18792C8.06684 5.19279 8.05473 5.20248 8.04685 5.21529C8.03895 5.22812 8.03577 5.24328 8.03784 5.25819C8.04865 5.55008 7.95675 5.69062 7.76756 5.69062C7.75214 5.69047 7.73692 5.68701 7.72293 5.68048C7.70894 5.67396 7.69652 5.66451 7.68649 5.65278L7.55135 5.50684C7.52432 5.47981 7.4973 5.4744 7.45946 5.49602L7.07568 5.73387C7.04325 5.75008 7.03243 5.77711 7.04865 5.81494L7.17838 6.13926C7.23244 6.27441 7.2 6.31225 7.06487 6.24738L5.36217 5.43657C5.34595 5.43117 5.32973 5.43657 5.31892 5.45279L5.30811 5.4744V5.47981C5.6919 5.70684 6.04864 5.93387 6.37838 6.15009C6.42702 6.18792 6.43243 6.22575 6.38918 6.269L6.21622 6.44197C6.1912 6.4706 6.15694 6.48952 6.1194 6.49544C6.08185 6.50137 6.04342 6.49393 6.01081 6.47441L3.95676 5.4744C3.72973 5.3663 3.71352 5.38792 3.91352 5.54467L5.53514 6.85818C5.57297 6.89062 5.64325 6.91224 5.74594 6.91765C5.81081 6.92305 5.85946 6.92846 5.8919 6.94468C5.96216 6.9663 6.02163 6.98792 6.07567 7.01495C6.92974 7.46359 7.82162 7.94467 8.75135 8.45819C8.80541 8.49062 8.83783 8.54468 8.84324 8.62035L8.91351 9.11224C8.91351 9.15008 8.94054 9.1771 8.97298 9.19332L10.6595 9.91227C10.7243 9.93926 10.7676 9.98795 10.7946 10.0582L10.8324 10.1609C10.9081 10.3987 10.9946 10.5447 11.0757 10.5988C11.5788 10.9271 12.0727 11.2696 12.5567 11.6257C12.6432 11.6906 12.7622 11.7987 12.9081 11.9392C13.0864 12.1123 13.2325 12.2365 13.3406 12.3068L16.054 14.1608C16.2162 14.269 16.4487 14.4365 16.7621 14.6636C17.1405 14.9339 17.4162 15.1393 17.6108 15.2635C17.7567 15.3609 17.9027 15.5662 18.054 15.8798L18.0973 15.9609L18.1136 15.9933C18.2108 16.1879 18.4757 16.2852 18.9081 16.2797H18.9406C19.0595 16.2797 19.1892 16.323 19.3351 16.415L22 18.1122V17.9609ZM7.64324 5.28521L7.72973 5.16089C7.73637 5.15261 7.74042 5.14255 7.74138 5.13197C7.74235 5.1214 7.74017 5.11078 7.73514 5.10144L7.64865 4.91765C7.61621 4.85278 7.58379 4.84738 7.54054 4.91765L7.40541 5.15008C7.38379 5.18792 7.38919 5.21495 7.43244 5.23657L7.57298 5.30143C7.59999 5.31765 7.62702 5.31224 7.64324 5.28521ZM6.64865 5.17711L6.70811 5.70143C6.71892 5.78792 6.69189 5.80955 6.62162 5.75008L6.14054 5.3717C6.08648 5.32846 6.0973 5.30143 6.16216 5.27441L6.57837 5.13386C6.62162 5.11764 6.64324 5.13386 6.64865 5.18251V5.17711ZM13.6757 15.3068C13.6865 15.296 13.6973 15.296 13.7135 15.3068C14.7784 15.9555 15.8811 16.6528 17.027 17.377C17.4973 17.6744 18.2054 18.0907 19.1513 18.6204C19.5423 18.8388 19.9315 19.0604 20.3189 19.2852L20.3406 19.2582L20.3351 19.2311L17.4162 17.123C17.3448 17.0631 17.286 16.9897 17.2433 16.9068C17.1676 16.7825 17.0919 16.6907 17.0108 16.6474L15.8864 15.9987C15.5622 15.815 15.1838 15.4636 14.7621 14.9447L14.546 14.6798C14.5254 14.6536 14.4969 14.6347 14.4649 14.6257C14.3932 14.6058 14.3212 14.5878 14.2487 14.5717C14.0605 14.5378 13.8806 14.4681 13.7189 14.3663C13.4595 14.1663 13.2162 13.9663 12.9838 13.7717C12.8594 13.6636 12.6486 13.5663 12.3514 13.4797C12.1296 13.4297 11.9203 13.336 11.7351 13.2042C11.406 12.918 11.0887 12.6187 10.7837 12.3068C10.7335 12.2546 10.67 12.2172 10.6 12.1987L9.08649 11.7933C8.95515 11.7583 8.83448 11.6915 8.73513 11.5987C7.75536 10.6825 6.76974 9.77265 5.77838 8.869C5.59459 8.70143 5.26487 8.4744 4.8 8.19331C4.52973 8.03115 4.32974 7.91224 4.20541 7.82576C3.45947 7.31224 2.74595 6.85278 2.05406 6.44197C2.03784 6.43116 2.02703 6.43116 2.01622 6.44738L2 6.469V6.47441C2.24325 6.65818 2.56757 6.94468 2.98378 7.32306C3.28109 7.59873 3.50811 7.80413 3.65946 7.92845C3.8973 8.12846 4.20541 8.42035 4.58919 8.80954L4.61622 8.83656C4.63217 8.85136 4.64329 8.87064 4.6481 8.89185C4.65292 8.91306 4.65123 8.93524 4.64325 8.95548L4.5946 9.09061C4.57838 9.14467 4.54595 9.14467 4.50812 9.10683C4.09064 8.70478 3.65789 8.31892 3.21081 7.95008H3.18379C3.16757 7.96089 3.16757 7.9717 3.18379 7.98792L3.31892 8.15008C3.55135 8.40413 3.71892 8.60413 3.82163 8.74467C4.03784 9.02575 4.25406 9.2906 4.47028 9.53932C4.58919 9.66898 4.68109 9.8366 4.74595 10.0419C4.75676 10.0743 4.74595 10.096 4.71351 10.1069L4.37297 10.2311C4.36022 10.235 4.3486 10.242 4.33918 10.2514C4.32975 10.2609 4.32279 10.2725 4.31893 10.2852C4.20866 11.0731 4.25503 11.8749 4.45538 12.6449C4.65575 13.4148 5.00615 14.1375 5.48649 14.7717C6.39521 15.9673 7.71058 16.7884 9.18378 17.0798C9.30265 17.1069 9.41086 17.1015 9.51353 17.069C9.62162 17.0312 9.71886 16.9879 9.81623 16.9393L11.0053 16.3014C11.0263 16.2892 11.0505 16.2838 11.0747 16.2857C11.0988 16.2876 11.1218 16.2969 11.1406 16.3123L11.8973 16.8527C11.9513 16.8851 11.973 16.8744 11.9621 16.8095L11.8865 16.388C11.8486 16.1717 11.8649 15.9068 11.9406 15.5879C11.9513 15.5123 11.9946 15.4582 12.0648 15.4257L12.8378 15.0906C12.9405 15.0528 12.9838 15.0852 12.9729 15.1879C12.9568 15.4203 12.9729 15.6743 13.0162 15.9555C13.0162 15.9879 13.0162 16.0203 13.0055 16.0527L12.9513 16.1988C12.8433 16.4636 12.7837 16.669 12.7676 16.8203L12.708 17.4474C12.708 17.469 12.7135 17.4798 12.7352 17.4798C13.6648 17.4527 14.519 17.2311 15.281 16.8203C15.3297 16.7988 15.3297 16.7716 15.281 16.7446C15.1189 16.6474 14.973 16.5339 14.8595 16.4095C14.4918 16.0226 14.0982 15.6613 13.6811 15.3285V15.3068H13.6757ZM16.8919 10.4853L16.2595 10.3014C16.2334 10.2947 16.2097 10.2811 16.1908 10.262C16.1717 10.243 16.1581 10.2193 16.1513 10.1933L15.8811 9.40411C15.8379 9.2906 15.7783 9.18792 15.6972 9.10142L15.1351 8.51765C15.1235 8.50568 15.1149 8.49106 15.1102 8.47504C15.1056 8.45904 15.1048 8.44211 15.1081 8.42575C15.2162 7.8798 15.3621 7.3717 15.5567 6.90143C15.573 6.85818 15.5946 6.85278 15.6216 6.88521C16.5049 7.86087 16.9724 9.14292 16.9243 10.4581C16.9243 10.4798 16.9135 10.4906 16.8919 10.4853ZM4.05406 9.56631L3.92433 9.64741C3.91969 9.65119 3.91621 9.65636 3.9143 9.66204C3.9124 9.66784 3.91212 9.67389 3.91352 9.67982L3.92973 10.0095C3.92973 10.0474 3.94595 10.0528 3.97839 10.0365L4.27027 9.88516C4.2973 9.87443 4.30271 9.85816 4.28649 9.8366L4.10271 9.57716C4.0919 9.56089 4.07568 9.55546 4.05406 9.56631ZM14.2163 10.3176L15.8216 10.8852C15.8433 10.8961 15.8486 10.9122 15.8324 10.9339L15.0216 11.9447C15.0109 11.9609 14.9946 11.9609 14.9837 11.9447L13.9405 10.9176C13.9297 10.9068 13.9243 10.8961 13.9297 10.8852L14.1784 10.3285C14.1837 10.3122 14.2 10.3122 14.2163 10.3176ZM16.9891 13.7339L17.0432 13.75C17.3081 13.8528 17.5406 13.9716 17.7459 14.123C17.7837 14.1447 17.8054 14.1393 17.8216 14.096C18.0414 13.3264 18.0839 12.5169 17.9459 11.7285C17.8918 11.4312 17.8324 11.1231 17.7567 10.7987C17.7459 10.7663 17.7298 10.7501 17.6919 10.7501L16.4757 10.7393C16.4397 10.7376 16.404 10.7452 16.3719 10.7614C16.3396 10.7774 16.3121 10.8015 16.2919 10.8311L15.3189 12.2311C15.304 12.2509 15.2938 12.2739 15.2891 12.2983C15.2844 12.3227 15.2853 12.3478 15.2919 12.3717L15.3189 12.469C15.3945 12.7284 15.5027 12.9015 15.6433 12.9879L16.5459 13.5284C16.6379 13.588 16.7838 13.6528 16.9837 13.7339H16.9891ZM18.854 12.069C18.854 12.0528 18.8703 12.0473 18.8865 12.0473L18.9621 12.069C19.0378 12.0906 19.0702 12.1393 19.0487 12.2204L19.0378 12.2636C19.0162 12.3446 18.9676 12.3717 18.8865 12.3555L18.8162 12.3393C18.7946 12.3339 18.7892 12.323 18.7946 12.3068L18.8486 12.069H18.854ZM18.654 13.2906L18.9784 12.8582C19.0217 12.7879 19.0054 12.7501 18.9243 12.7501L18.4054 12.7068C18.3513 12.7014 18.3297 12.723 18.3297 12.7717L18.3243 13.1501C18.3243 13.1825 18.3352 13.2042 18.3621 13.2149L18.5676 13.3123C18.6054 13.3284 18.6324 13.3231 18.654 13.2906ZM18.2054 13.6636C18.2216 13.6204 18.2486 13.6041 18.2919 13.615L19.1567 13.842C19.2 13.8528 19.2161 13.8744 19.2161 13.9122V14.7717C19.2161 14.8258 19.1946 14.8419 19.1459 14.8041C19.0595 14.7284 18.8649 14.6906 18.5676 14.6853H18.427C18.2702 14.6744 18.1189 14.5987 17.9675 14.4528C17.9553 14.4425 17.9466 14.4286 17.9427 14.4131C17.9387 14.3976 17.9399 14.3812 17.9459 14.3663L18.2054 13.6636ZM20.1514 13.7555C19.9676 13.6311 19.827 13.6365 19.7406 13.7824C19.7189 13.815 19.6865 13.8257 19.6486 13.7987C19.633 13.788 19.6152 13.7809 19.5964 13.778C19.5778 13.7753 19.5586 13.7768 19.5405 13.7824C19.4864 13.7933 19.4864 13.8203 19.5297 13.8581L19.9081 14.1663C19.9405 14.1879 19.9676 14.1825 19.9892 14.1501L20.1729 13.8366C20.1892 13.8041 20.1838 13.7772 20.1514 13.7555ZM20.2595 14.8419C20.2452 14.8208 20.236 14.7969 20.2325 14.7717C20.227 14.7284 20.2432 14.7068 20.2865 14.7014C20.3134 14.7014 20.3351 14.7068 20.346 14.7284C20.3784 14.7717 20.373 14.8149 20.3351 14.8528C20.3081 14.8744 20.281 14.8744 20.2649 14.8419H20.2595ZM15.7729 14.8528L16.2865 15.4527C16.2865 15.4582 16.2919 15.4636 16.3026 15.4636L17.227 15.6473C17.2918 15.6582 17.2973 15.6473 17.254 15.5987L16.427 14.8419L16.4109 14.8312L15.7946 14.8041C15.7568 14.8041 15.7459 14.8203 15.7729 14.8528ZM19.2648 15.5771L19.0162 15.1015C19 15.0798 19.0054 15.0636 19.0324 15.0582L19.6486 14.9014C19.6649 14.9014 19.6756 14.9014 19.681 14.9176L20.1946 16.0636C20.2216 16.1177 20.2108 16.1338 20.1568 16.1014L19.2757 15.5879L19.2648 15.5771ZM20.7135 15.3122C20.7135 15.3338 20.7027 15.3501 20.6918 15.3663C20.6727 15.3892 20.6487 15.4077 20.6216 15.4203L20.573 15.4473C20.5298 15.469 20.5297 15.4906 20.5676 15.523L20.6757 15.6041C20.7027 15.6258 20.7297 15.6258 20.7514 15.6041C20.8379 15.5338 20.8703 15.4527 20.8594 15.3609C20.8563 15.3409 20.8475 15.3221 20.8341 15.3068C20.8207 15.2914 20.8032 15.2802 20.7838 15.2744C20.7459 15.2581 20.7189 15.2744 20.7135 15.3122ZM12.5136 16.1771L12.2433 16.1555C12.2162 16.1555 12.2 16.1392 12.1946 16.1068L12.1676 15.8906C12.1662 15.8799 12.168 15.8691 12.1728 15.8595C12.1777 15.8498 12.1853 15.8418 12.1946 15.8365L12.573 15.6149C12.6378 15.5717 12.6649 15.5934 12.6486 15.669L12.573 16.1284C12.5675 16.1609 12.546 16.1717 12.5189 16.1717L12.5136 16.1771ZM17.0163 16.0798L17.1622 16.269L17.1729 16.2744L17.5513 16.4258C17.6217 16.4528 17.6378 16.4365 17.5891 16.3771L17.3729 16.1177C17.3729 16.1122 17.3675 16.1068 17.3568 16.1068L17.0432 16.0366C16.9891 16.0203 16.9837 16.0366 17.0163 16.0798ZM9.92432 17.4853C9.83237 17.496 9.81623 17.469 9.89733 17.4149L10.9514 16.6474C10.9569 16.6434 10.9635 16.6412 10.9703 16.6412C10.9771 16.6412 10.9837 16.6434 10.9892 16.6474C11.2426 16.7821 11.4948 16.9191 11.746 17.0582C11.1675 17.2906 10.5567 17.4366 9.92432 17.4906V17.4853ZM14.7027 17.3176L14.8217 17.5392C14.8324 17.5717 14.8324 17.5933 14.8108 17.6203C14.7838 17.6473 14.8054 17.6852 14.8648 17.7339L14.8919 17.7447L15.7946 17.9068C15.8324 17.9068 15.8433 17.896 15.827 17.8636L15.7729 17.7663C15.7001 17.643 15.6506 17.5075 15.627 17.3663C15.6108 17.1609 15.4973 17.0798 15.2919 17.1284L14.7297 17.2582C14.6973 17.269 14.6865 17.2852 14.7027 17.3122V17.3176ZM16.2 17.1554C16.5783 17.2852 17.0919 17.5555 17.7298 17.9663C17.7622 17.9933 17.7837 18.0203 17.7946 18.0635L17.9189 18.5447C17.9297 18.5879 17.9189 18.6041 17.8648 18.5987C17.4973 18.5554 17.1459 18.5284 16.8108 18.5284C16.7173 18.5324 16.6262 18.4993 16.5568 18.4365C16.3837 18.2848 16.2543 18.0894 16.1822 17.8708C16.1099 17.6522 16.0974 17.4184 16.146 17.1933C16.146 17.1609 16.1676 17.15 16.2 17.1609V17.1554ZM14.4703 17.7663C14.4162 17.7933 14.3351 17.7447 14.2865 17.6582C14.2433 17.5662 14.2487 17.4744 14.3027 17.442C14.3568 17.4203 14.4379 17.469 14.4811 17.5609C14.5243 17.6473 14.519 17.7393 14.4649 17.7663H14.4703ZM15.9892 18.8744L15.6648 18.3879C15.6378 18.3447 15.6433 18.3177 15.6972 18.3014L16.0595 18.1988C16.0865 18.1879 16.1027 18.1988 16.1189 18.2203L16.4865 18.7825C16.5189 18.8366 16.5027 18.8636 16.4378 18.869L16.0432 18.896C16.0331 18.898 16.0226 18.897 16.0131 18.8931C16.0035 18.8893 15.9951 18.8827 15.9892 18.8744ZM18 19.2419L17.7298 18.8042C17.6648 18.7068 17.6054 18.7068 17.546 18.8042C17.454 18.9392 17.4378 19.0528 17.5134 19.1393C17.5567 19.1933 17.6702 19.2365 17.8378 19.2689L17.9675 19.2906C18.0216 19.3068 18.0325 19.2906 18 19.2419Z" fill="white"/>
</svg>

<svg xmlns="http://www.w3.org/2000/svg" width="24" height="24" fill="none" viewBox="0 0 24 24">
    <path fill="#fff" d="M22 17.96a96 96 0 0 1-2.21-1.707 38 38 0 0 0-1.444-1.103 442 442 0 0 0-5.113-3.67.73.73 0 0 1-.27-.416q-.011-.04.026-.017l1.292.87c.027.022.049.011.054-.026a.42.42 0 0 0-.135-.379q-.405-.38-.778-.703-.04-.03 0-.07l.545-.54a.1.1 0 0 0 .033-.103l-.027-.13c-.006-.054.01-.065.054-.054l1.416.514q.075.025.125-.038l.14-.162a.1.1 0 0 0 .016-.108 4.9 4.9 0 0 0-1.238-1.66.15.15 0 0 1-.048-.162l.476-1.578a.09.09 0 0 0-.022-.087 6.1 6.1 0 0 0-3.178-1.789 5.96 5.96 0 0 0-3.633.346.065.065 0 0 0-.043.07c.01.292-.081.433-.27.433a.1.1 0 0 1-.082-.038l-.135-.146c-.027-.027-.054-.033-.092-.011l-.383.238q-.051.024-.027.08l.13.325c.053.135.021.173-.114.108l-1.703-.81q-.025-.008-.043.016l-.01.021v.006c.383.227.74.454 1.07.67q.073.056.01.119l-.173.173a.16.16 0 0 1-.205.032l-2.054-1q-.342-.163-.043.07l1.621 1.314q.057.05.21.06c.066.005.114.01.147.027q.104.03.184.07 1.281.673 2.675 1.443.083.05.092.162l.07.492c0 .038.028.065.06.081l1.686.72a.24.24 0 0 1 .136.145l.037.103c.076.238.163.384.244.438q.755.492 1.48 1.027c.087.065.206.173.352.313q.269.26.433.368l2.713 1.854c.162.108.395.276.708.503.378.27.654.475.849.6q.218.145.443.616l.043.08.017.033q.146.293.794.287h.033q.177-.002.394.135L22 18.112zM7.643 5.286l.087-.124a.05.05 0 0 0 .005-.06l-.086-.183c-.033-.065-.065-.07-.108 0l-.136.232c-.021.038-.016.065.027.087l.141.064c.027.017.054.011.07-.016m-.994-.108.06.524c.01.087-.017.109-.087.05l-.481-.38c-.055-.043-.044-.07.021-.097l.416-.14q.064-.024.07.049zm7.027 10.13q.014-.016.037 0c1.065.649 2.168 1.346 3.314 2.07q.705.448 2.124 1.243.586.328 1.168.665l.022-.027-.006-.027-2.919-2.108a.7.7 0 0 1-.173-.216c-.075-.125-.151-.216-.232-.26L15.886 16c-.324-.184-.702-.535-1.124-1.054l-.216-.265a.16.16 0 0 0-.081-.054 4 4 0 0 0-.216-.054 1.5 1.5 0 0 1-.53-.206q-.388-.302-.735-.594-.187-.163-.633-.292a1.7 1.7 0 0 1-.616-.276 16 16 0 0 1-.951-.897.4.4 0 0 0-.184-.108l-1.514-.406a.8.8 0 0 1-.35-.194q-1.47-1.375-2.958-2.73c-.183-.168-.513-.395-.978-.676-.27-.162-.47-.28-.595-.367a38 38 0 0 0-2.15-1.384q-.024-.016-.039.005L2 6.47v.005c.243.184.568.47.984.85.297.275.524.48.675.604q.356.298.93.882l.027.027a.11.11 0 0 1 .027.118l-.048.136c-.017.054-.049.054-.087.016q-.626-.603-1.297-1.157h-.027q-.024.015 0 .038l.135.162q.348.382.503.595.324.421.648.794.18.195.276.503.015.048-.032.065l-.341.124a.08.08 0 0 0-.054.054 6.04 6.04 0 0 0 1.167 4.487 6.14 6.14 0 0 0 3.698 2.308.6.6 0 0 0 .33-.011c.108-.038.205-.081.302-.13l1.19-.638a.12.12 0 0 1 .135.011l.756.54c.054.033.076.022.065-.043l-.075-.421q-.059-.323.054-.8a.2.2 0 0 1 .124-.162l.773-.335q.153-.057.135.097-.023.347.043.768c0 .032 0 .064-.01.097l-.055.146q-.16.396-.183.621l-.06.627c0 .022.005.033.027.033a5.65 5.65 0 0 0 2.546-.66q.074-.033 0-.075a2 2 0 0 1-.421-.335 12 12 0 0 0-1.179-1.082v-.021zm3.216-4.822-.633-.184a.15.15 0 0 1-.108-.108l-.27-.789a.9.9 0 0 0-.184-.303l-.562-.583a.1.1 0 0 1-.027-.092 8 8 0 0 1 .449-1.525q.024-.064.065-.016a5.05 5.05 0 0 1 1.302 3.573q0 .034-.032.027m-12.838-.92-.13.081a.03.03 0 0 0-.01.033l.016.33c0 .037.016.043.048.027l.292-.152q.041-.016.016-.048l-.183-.26c-.011-.016-.027-.022-.049-.01m10.162.752 1.606.567q.034.016.01.049l-.81 1.01c-.011.017-.027.017-.038 0l-1.043-1.026q-.018-.016-.011-.033l.248-.556c.006-.017.022-.017.038-.011m2.773 3.416.054.016c.265.103.498.222.703.373.038.022.06.016.076-.027.22-.77.262-1.58.124-2.367a19 19 0 0 0-.19-.93c-.01-.033-.026-.049-.064-.049l-1.216-.01a.21.21 0 0 0-.184.091l-.973 1.4a.16.16 0 0 0-.027.14l.027.098q.113.39.324.519l.903.54c.092.06.238.125.438.206zm1.865-1.665c0-.016.016-.022.033-.022l.075.022c.076.022.108.07.087.151l-.011.044q-.031.118-.151.091l-.07-.016q-.032-.008-.022-.032l.054-.238zm-.2 1.222.324-.433q.067-.107-.054-.108l-.519-.043c-.054-.006-.075.016-.075.065l-.006.378q-.001.048.038.065l.206.097q.054.025.086-.021m-.449.373q.024-.066.087-.049l.865.227c.043.01.06.032.06.07v.86c0 .054-.022.07-.071.032-.087-.076-.281-.113-.578-.119h-.141q-.234-.014-.46-.232a.08.08 0 0 1-.021-.087zm1.946.091c-.183-.124-.324-.119-.41.027-.022.033-.055.044-.092.017a.13.13 0 0 0-.108-.017c-.055.011-.055.038-.011.076l.378.308q.049.033.081-.016l.184-.313q.025-.05-.022-.082m.108 1.087a.2.2 0 0 1-.026-.07q-.01-.064.053-.07c.027 0 .05.005.06.026q.047.067-.01.125c-.028.021-.055.021-.071-.011zm-4.486.01.514.6q0 .01.016.012l.924.183c.065.011.07 0 .027-.048l-.827-.757-.016-.01-.616-.028c-.038 0-.05.016-.022.049m3.492.725-.249-.476q-.023-.033.016-.043l.617-.157c.016 0 .027 0 .032.017l.514 1.146c.027.054.016.07-.038.037l-.881-.513zm1.448-.265c0 .022-.01.038-.021.054a.2.2 0 0 1-.07.054l-.049.027c-.043.022-.043.044-.005.076l.108.081q.042.033.075 0c.087-.07.12-.151.108-.243a.11.11 0 0 0-.075-.087c-.038-.016-.065 0-.07.038m-8.2.865-.27-.021q-.04 0-.048-.05l-.027-.215a.05.05 0 0 1 .027-.055l.378-.221c.065-.043.092-.022.076.054l-.076.46c-.005.032-.027.043-.054.043zm4.503-.097.146.189.01.005.38.152c.07.027.086.01.037-.049l-.216-.26q0-.009-.016-.01l-.314-.07c-.054-.017-.06 0-.027.043m-7.092 1.405c-.092.011-.108-.016-.027-.07l1.054-.768a.03.03 0 0 1 .038 0q.38.203.757.411a6.3 6.3 0 0 1-1.822.433zm4.779-.167.119.221c.01.033.01.054-.011.081-.027.027-.006.065.054.114l.027.01.903.163c.037 0 .048-.011.032-.043l-.054-.098a1.2 1.2 0 0 1-.146-.4q-.026-.309-.335-.238l-.562.13q-.05.015-.027.054zm1.497-.163c.378.13.892.4 1.53.811a.17.17 0 0 1 .065.098l.124.48c.01.044 0 .06-.054.055a9 9 0 0 0-1.054-.07.36.36 0 0 1-.254-.093 1.29 1.29 0 0 1-.411-1.243c0-.032.022-.043.054-.032zm-1.73.611c-.054.027-.135-.021-.184-.108-.043-.092-.037-.184.017-.216.054-.022.135.027.178.119.043.086.038.178-.016.205zm1.52 1.108-.325-.486c-.027-.043-.022-.07.032-.087l.363-.102c.027-.011.043 0 .059.021l.367.563q.05.079-.048.086l-.395.027a.05.05 0 0 1-.054-.022m2.01.368-.27-.438q-.096-.146-.184 0c-.092.135-.108.249-.033.335.044.054.157.098.325.13l.13.022q.08.024.032-.05"/>
</svg>
